resources/svg/upload.svg

<svg xmlns="http://www.w3.org/2000/svg" viewBox="0 0 24 24"><path d="M.752 2.251a1.5 1.5 0 0 1 1.5-1.5M2.252 23.251a1.5 1.5 0 0 1-1.5-1.5M23.252 21.751a1.5 1.5 0 0 1-1.5 1.5M21.752.751a1.5 1.5 0 0 1 1.5 1.5M23.252 18.001v-1.5M23.252 12.751v-1.5M23.252 7.501v-1.5M.752 18.001v-1.5M.752 12.751v-1.5M.752 7.501v-1.5M6.002.751h1.5M11.252.751h1.5M16.502.751h1.5M6.002 23.251h1.5M11.252 23.251h1.5M16.502 23.251h1.5M12.002 18.001v-12M16.502 10.501l-4.5-4.5-4.5 4.5" fill="none" stroke="currentColor" stroke-linecap="round" stroke-linejoin="round" stroke-width="1.5"/></svg>

<svg xmlns="http://www.w3.org/2000/svg" viewBox="0 0 24 24"><path fill="none" stroke="currentColor" stroke-linecap="round" stroke-linejoin="round" stroke-width="1.5" d="M.752 2.251a1.5 1.5 0 0 1 1.5-1.5m0 22.5a1.5 1.5 0 0 1-1.5-1.5m22.5 0a1.5 1.5 0 0 1-1.5 1.5m0-22.5a1.5 1.5 0 0 1 1.5 1.5m0 15.75v-1.5m0-3.75v-1.5m0-3.75v-1.5m-22.5 12v-1.5m0-3.75v-1.5m0-3.75v-1.5m5.25-5.25h1.5m3.75 0h1.5m3.75 0h1.5m-12 22.5h1.5m3.75 0h1.5m3.75 0h1.5m-6-5.25v-12m4.5 4.5-4.5-4.5-4.5 4.5"/></svg>
